X:1
T:Title
%%score { ( 1 3 4 ) | ( 2 5 6 ) }
L:1/8
Q:1/4=100
M:4/4
K:D
V:1 treble nm="Grand Piano"
V:3 treble 
V:4 treble 
V:2 bass 
V:5 bass 
V:6 bass 
V:1
 [FA]>[EG] [DF]>[EG] [FA] [Fd]3 | [FA]>[EG] [DF]>[EG] [CE]4 | [EG]>[DF] [CE]>[DF] [CEG] [CGB]3 | %3
w: William~Kirkpatrick * * * * *|||
 [GB]>[FA] [=F^G]>[^FA] [DF]4 | [FA]>[EG] [DF]>[EG] [FA] [Fd]3 | d>c B>^A B4 | %6
w: |||
 e>d c>B [FA]>[Fd] [A,DA]>[B,DG] | [DF]2[K:bass] [G,CE]2 [F,D]4 | [FA]6 z2 | %9
w: |||
 [DFA]<[Fd] [Fd]>[Fd] [Fd]4 | [FA]6 z2 | [A,CE]<[EGc] [EGc]>[EGc] [EGc]4 | %12
w: |||
 [FA]>[FA] [FA]>[FA] [FA] [Fd]3 | B>B B>B B e3 | c>c c>c c<A B>c | d-<[Fd-] [Gd-]>[Gd-] [Fd]2 z2 |] %16
w: ||||
V:2
 [D,D]>[D,A,] [D,A,]>[D,A,] [D,D] [D,A,]3 | [D,A,]>[D,A,] [D,A,]>[D,A,] [A,,A,]4 | %2
 [A,,A,]>[A,,A,] [A,,A,]>[A,,A,] A,, A,,3 | [D,D]>[D,D] [D,D]>[D,D] [D,A,]4 | %4
 [D,D]>[D,A,] [D,A,]>[D,A,] [D,D] [D,A,]3 | [G,B,G]>[G,CG] [G,DG]>[G,CG] [G,DG]4 | %6
 [G,B,G]>[G,B,G] [G,DG]>[G,DG][K:bass] [D,D]>[D,A,] F,>G, | A,2 A,,2 D,4 | D,>D, D,>D, .D,>E D>E | %9
 D,<[D,A,] [D,A,]>[D,A,] [D,A,]4 | [D,D]>D, D,>D, .D,>E D>E, | A,,<A,, A,,>A,, A,,4 | %12
 [D,D]>[D,D] [D,D]>[D,D] [D,D] [D,D]3 | [G,DG]>[G,DG] [G,DG]>[G,DG] [G,DG] [G,B,G]3 | %14
 z4 z2 G2[K:bass] | .A,2 z2 z4 |] %16
V:3
 x8 | x8 | x8 | x8 | x8 | x8 | x8 | x2[K:bass] x6 | D>D D>D .D>G F>G | x8 | %10
 z z/ D/ D>D .D>G F>[A,EG] | x8 | x8 | x8 | x8 | .F2 z2 z4 |] %16
V:4
 x8 | x8 | x8 | x8 | x8 | x8 | x8 | x2[K:bass] x6 | z4 z/ D3/2 z2 | x8 | z4 z/ A,3/2 z2 | x8 | x8 | %13
 x8 | x8 | x8 |] %16
V:5
 x8 | x8 | x8 | x8 | x8 | x8 | x4[K:bass] x4 | x8 | z4 z/ D,3/2 z2 | x8 | z4 z/ D,3/2 z2 | x8 | %12
 x8 | x8 | [A,EG]>[A,EG] [A,EG]>[A,EG] [A,EG]<[A,G] A,>[K:bass]A, | %15
 D,-<[D,-A,] [D,-B,]>[D,-B,] [D,A,]2 z2 |] %16
V:6
 x8 | x8 | x8 | x8 | x8 | x8 | x4[K:bass] x4 | x8 | x8 | x8 | x8 | x8 | x8 | x8 | %14
 z4 z/ C3/2- C2[K:bass] | x8 |] %16

